X:1
T:Title
%%score ( 1 2 ) { 3 | 4 }
L:1/8
Q:1/4=100
M:4/4
K:F
V:1 treble nm="Grand Piano, Piano"
V:2 treble 
V:3 bass nm="Grand Piano, Piano"
V:4 bass 
V:1
 [CF]2 [CF]2 [CF]2 [EG]2 | [FA]2 [Ac]2 [FA]4 | [CF]>[CF] [CF]>[CG] [FA]2 [FA]2 | [EG]4 F4 | %4
w: 1.~What~ can~ wash~ a|way~ my~ sin?~|Noth ing~ but~ the~ blood~ of~|Je sus.~|
 [CF]2 [CF]2 [CF]2 [EG]2 | [FA]2 [Ac]2 [FA]4 | [CF]>[CF] [CF]>[CG] [FA]2 [FA]2 | [EG]4 F4 | %8
w: What~ can~ make~ me~|whole~ a gain?~|Noth * but~ the~ blood~ of~|Je sus.~|
 [Fc]4 [FA]2 [EG]2 | [FA]2 [Fc]2 [FA]4 | [EG]4 [EG]2 F2 | z4 A2 z2 | [Fc]4 [FA]2 [EG]2 | %13
w: |||||
 [FA]2 [Fc]2 [FA]4 | [CF]>[CF] [CF]>[CG] [FA]2 [FA]2 | [EG]4 F4 |] %16
w: |||
V:2
 x8 | x8 | x8 | x8 | x8 | x8 | x8 | x8 | x8 | x8 | x8 | [EG]2 [EG]2 F2- [Fc]2 | x8 | x8 | x8 | %15
 x8 |] %16
V:3
 A,2 A,2 A,2 C2 | C2 C2 C4 | A,>A, A,>B, C2 C2 | B,4 A,4 | A,2 A,2 A,2[K:treble] C2 | C2 C2 C4 | %6
 A,>[K:bass]A, A,>B, C2 C2 | B,4 A,4 | A,4[K:treble] C2 C2 | C2 A,2 C4 | B,4 B,2 A,2 | %11
 C2 C2 C2 A,2 | A,4[K:treble] C2 C2 | C2 A,2 C4 | A,>A, A,>B, C2 C2 | B,4 A,4 |] %16
V:4
 F,2 F,2 F,2 C,2 | F,2 F,2 F,4 | F,>F, F,>F, F,2 F,2 | C,4 F,4 | F,2 F,2 F,2 C,2 | F,2 F,2 F,4 | %6
 F,>F, F,>F, F,2 F,2 | C,4 F,4 | F,4 F,2 C,2 | F,2 F,2 F,4 | C,4 C,2 D,2 | C,2 C,2 F,4 | %12
 F,4 F,2 C,2 | F,2 F,2 F,4 | F,>F, F,>F, F,2 F,,2 | C,4 F,4 |] %16

